modules/coreui-icons-free/icons/4k.svg

<!-- Generated by IcoMoon.io -->
<svg version="1.1" xmlns="http://www.w3.org/2000/svg" width="24" height="24" viewBox="0 0 24 24">
<title>4k</title>
<path d="M9.75 8.625h-1.5v4.125h-2.921l0.638-6.375h-1.508l-0.787 7.875h4.579v3.375h1.5v-3.375h1.5v-1.5h-1.5v-4.125z"></path>
<path d="M18.099 6.375l-2.437 4.875h-1.411v-4.875h-1.5v11.25h1.5v-4.875h1.411l2.437 4.875h1.677l-2.813-5.625 2.813-5.625h-1.677z"></path>
<path d="M21.75 0.75h-19.5c-0.828 0-1.5 0.672-1.5 1.5v0 19.5c0 0.828 0.672 1.5 1.5 1.5v0h19.5c0.828 0 1.5-0.672 1.5-1.5v0-19.5c0-0.828-0.672-1.5-1.5-1.5v0zM21.75 21.75h-19.5v-19.5h19.5v19.5z"></path>
</svg>

<svg xmlns="http://www.w3.org/2000/svg" width="24" height="24" viewBox="0 0 24 24"><path d="M9.75 8.625h-1.5v4.125H5.329l.638-6.375H4.459l-.787 7.875h4.579v3.375h1.5V14.25h1.5v-1.5h-1.5V8.625zM18.099 6.375l-2.437 4.875h-1.411V6.375h-1.5v11.25h1.5V12.75h1.411l2.437 4.875h1.677L16.963 12l2.813-5.625h-1.677z"/><path d="M21.75.75H2.25a1.5 1.5 0 00-1.5 1.5v19.5a1.5 1.5 0 001.5 1.5h19.5a1.5 1.5 0 001.5-1.5V2.25a1.5 1.5 0 00-1.5-1.5zm0 21H2.25V2.25h19.5v19.5z"/></svg>
